src/icons/svg/accountmanage.svg

<svg height="480pt" viewBox="-72 0 480 480" width="480pt" xmlns="http://www.w3.org/2000/svg"><path d="m248 64v-32h-24v-32h-112v32h-24v32h-88v416h336v-416zm-120-48h80v16h-80zm-24 32h128v32h-128zm216 416h-304v-384h72v16h160v-16h72zm0 0"/><path d="m48 432h240v-304h-240zm16-288h208v272h-208zm0 0"/><path d="m176 168h-16v16h-56v104h112v72h-96v-8h-16v24h56v16h16v-16h56v-104h-112v-72h96v8h16v-24h-56zm0 0"/></svg>

<svg height="640" viewBox="-72 0 480 480" width="640" xmlns="http://www.w3.org/2000/svg"><path d="M248 64V32h-24V0H112v32H88v32H0v416h336V64zM128 16h80v16h-80zm-24 32h128v32H104zm216 416H16V80h72v16h160V80h72zm0 0"/><path d="M48 432h240V128H48zm16-288h208v272H64zm0 0"/><path d="M176 168h-16v16h-56v104h112v72h-96v-8h-16v24h56v16h16v-16h56V272H120v-72h96v8h16v-24h-56zm0 0"/></svg>
